X: 117
T: Fenhong lian
%%abc-version 2.0
%%abcx-abcm2ps-target-version 5.9.1 (29 Sep 2008)
%%abc-creator hum2abc beta
%%abcx-conversion-date 2013/10/02 07:52:29
%%abc-edited-by Helmut Schaffrath
%%humdrum-veritas 2274132622
%%humdrum-veritas-data 3186873538
%%continueall 1
%%barnumbers 0
L: 1/8
M: 2/4
K: G
G A d B [I:setbarnb 1]| 
A4 | 
B A G E | 
D4 | 
G2A2 | 
B d B A | 
G A G E | 
D4 | 
G BA2 | 
A d B d | 
A2D E | 
G4 | 
B A G E | 
D2D2 | 
E D B A | 
G4 |]  



